X: 2004
T: Jackson's Bottle of Aspirin
R: jig
C: Rick Gagne
N: 1986 and 2003 on tenor banjo
M: 6/8
K: D
e | "D"fed "A"ecA | "G"BAG "D"AFD | "G5"BGE "C"=cGE |"D"dAF "A"E2e |
"D"fed "A"ecA | "G"BAG "D5"AFD | "G"BGE "A"ABc | "D"dAF "D"D2 :|
D | "D5"FAc dAG | FED "C5"=c2=c | "D5"FAc dAG | FDD "C"=CDD |
"D5"FAc dAG | FED "C"=c2=c | "G"B2B "A"ABG | FGE "D"D2 :|
